X: 94
T: Ji de er nana Dzider-nana                          (Name)
%%abc-version 2.0
%%abcx-abcm2ps-target-version 5.9.1 (29 Sep 2008)
%%abc-creator hum2abc beta
%%abcx-conversion-date 2013/10/02 07:44:27
%%abc-edited-by Helmut Schaffrath
%%humdrum-veritas 1490526426
%%humdrum-veritas-data 130608079
%%continueall 1
%%barnumbers 0
L: 1/8
M: 4/4
K: C
G> G E D C D G z [I:setbarnb 1]| 
D> D D CD2z2 | 
G> G E D C D G z | 
D> D D CD2z2 | 
G G E D/ E/ G GG2 | 
G,2>A,2 B, A,D2 | 
D E D B, A B,D2 | 
G,8 |]  



